lib/icons/academy-hat.svg

<svg width="18" height="14" viewBox="0 0 18 14" fill="none" xmlns="http://www.w3.org/2000/svg">
<path fill-rule="evenodd" clip-rule="evenodd" d="M1.40165 4.5L9 1.05203L16.5983 4.5L9 7.94797L1.40165 4.5ZM8.80331 0.0431397C8.93006 -0.0143801 9.06994 -0.0143798 9.19669 0.0431401L17.6401 3.87459C18.12 4.09234 18.12 4.90766 17.6401 5.12541L15.0751 6.28935V11.1712C15.0751 11.4873 15.0475 11.8603 14.8857 12.2273C14.7186 12.6064 14.4274 12.9373 13.9721 13.2029C13.0996 13.7118 11.591 13.9982 9.01781 13.9982C6.42254 13.9982 4.9144 13.6095 4.04355 13.0451C3.59818 12.7565 3.3186 12.4212 3.15535 12.0756C2.99375 11.7335 2.9605 11.4118 2.9605 11.1712V6.30551L0.35988 5.12541C-0.119961 4.90766 -0.11996 4.09234 0.359881 3.87459L8.80331 0.0431397ZM3.9605 6.75929V11.1712C3.9605 11.3183 3.98068 11.4815 4.05954 11.6484C4.13675 11.8119 4.28465 12.0098 4.58738 12.206C5.21273 12.6112 6.48326 12.9982 9.01781 12.9982C11.5744 12.9982 12.8445 12.7028 13.4683 12.3391C13.761 12.1684 13.8973 11.9903 13.9707 11.8239C14.0493 11.6455 14.0751 11.4368 14.0751 11.1712V6.74313L9.19669 8.95686C9.06993 9.01438 8.93006 9.01438 8.80331 8.95686L3.9605 6.75929Z" fill="#7A859E"/>
</svg>

<svg width="18" height="14" fill="none" xmlns="http://www.w3.org/2000/svg"><path fill-rule="evenodd" clip-rule="evenodd" d="M1.402 4.5 9 1.052 16.598 4.5 9 7.948 1.402 4.5ZM8.803.043a.47.47 0 0 1 .394 0l8.443 3.832c.48.217.48 1.033 0 1.25L15.075 6.29v4.882c0 .316-.027.69-.19 1.056-.166.38-.458.71-.913.976-.872.509-2.381.795-4.954.795-2.595 0-4.104-.388-4.974-.953-.446-.288-.725-.624-.889-.97a2.09 2.09 0 0 1-.194-.904V6.306L.36 5.126c-.48-.218-.48-1.034 0-1.251L8.803.043ZM3.96 6.76v4.412c0 .147.02.31.1.477.077.164.225.362.527.558.626.405 1.896.792 4.43.792 2.557 0 3.828-.295 4.451-.659.293-.17.43-.349.503-.515.078-.178.104-.387.104-.653V6.743L9.197 8.957a.47.47 0 0 1-.394 0L3.96 6.759Z" fill="#7A859E"/></svg>
